; generated by Slic3r 1.2.9 on 2017-11-25 at 16:38:11

; external perimeters extrusion width = 0.50mm
; perimeters extrusion width = 0.85mm
; infill extrusion width = 1.02mm
; solid infill extrusion width = 0.85mm
; top infill extrusion width = 0.85mm
; support material extrusion width = 0.50mm

M107
; ************************************************
; begin of custom g-code
; ************************************************
G90 ; use absolute coordinates
M82 ; use absolute distances for extrusion
G1 Z10 F1000; lift extruder
G28 X0 Y0; home x,y
G28 Z0; home z
M104 S190; preheat extruder
M190 S55 ; first layer: set and wait for bed temp to be reached
M109 S190; first layer: set and wait for extruder temp to be reached
G92 E0
G1 E10 F400 ; prime the nozzle
G0 Y100 F3000 ; cut filamentball
G0 x10 F3000 ;
; ************************************************
; end of custom g-code
; ************************************************
G21 ; set units to millimeters
G90 ; use absolute coordinates
M82 ; use absolute distances for extrusion
G92 E0
G1 Z0.350 F7800.000
G1 E-2.00000 F2400.00000
G92 E0
G1 Z0.450 F7800.000
G1 X60.416 Y76.073 F7800.000
G1 Z0.350 F7800.000
G1 E2.00000 F2400.00000
G1 X62.136 Y74.895 E2.18956 F1800.000
G1 X63.969 Y74.027 E2.37398
G1 X66.481 Y73.398 E2.60943
G1 X69.520 Y73.251 E2.88608
G1 X75.294 Y73.121 E3.41130
G1 X96.382 Y73.017 E5.32887
G1 X121.481 Y73.146 E7.61114 F1800.000
G1 X122.073 Y73.175 E7.66496
G1 X123.407 Y73.301 E7.78686
G1 X124.796 Y73.586 E7.91577
G1 X126.001 Y73.970 E8.03080
G1 X127.143 Y74.456 E8.14364
G1 X128.242 Y75.052 E8.25734
G1 X129.355 Y75.810 E8.37974
G1 X130.338 Y76.638 E8.49661
G1 X131.071 Y77.360 E8.59014
G1 X139.936 Y87.564 E9.81926
G1 X141.016 Y88.938 E9.97815
G1 X141.475 Y89.609 E10.05210
G1 X142.234 Y90.883 E10.18695
G1 X142.959 Y92.619 E10.35804
G1 X143.479 Y94.643 E10.54806
G1 X143.916 Y96.560 E10.72684
G1 X144.082 Y98.034 E10.86166
G1 X144.082 Y100.823 E11.11528
G1 X143.380 Y103.791 E11.39265
G1 X138.895 Y112.739 E12.30278
G1 X138.072 Y114.000 E12.43971
G1 X131.006 Y122.519 E13.44610
G1 X129.648 Y123.757 E13.61320
G1 X127.520 Y125.213 E13.84763
G1 X125.492 Y126.145 E14.05057
G1 X123.878 Y126.578 E14.20256
G1 X122.264 Y126.802 E14.35074
G1 X113.724 Y126.912 E15.12732
G1 X96.946 Y126.916 E16.65292
G1 X75.976 Y126.910 E18.55973
G1 X67.561 Y126.812 E19.32492
G1 X66.195 Y126.653 E19.45004
G1 X64.937 Y126.373 E19.56717
G1 X63.667 Y125.950 E19.68894
G1 X62.526 Y125.437 E19.80269
G1 X61.424 Y124.810 E19.91798
G1 X60.391 Y124.081 E20.03290
G1 X59.268 Y123.081 E20.16967
G1 X58.372 Y122.079 E20.29189
G1 X57.586 Y120.997 E20.41348
G1 X56.835 Y119.706 E20.54926
G1 X55.966 Y118.045 E20.71974
G1 X55.226 Y114.941 E21.00988
G1 X55.483 Y86.535 E23.59290
G1 X56.185 Y83.627 E23.86495
G1 X59.049 Y77.914 E24.44600
G1 X60.371 Y76.133 E24.64772
G1 E22.64772 F2400.00000
G92 E0
G1 Z0.450 F7800.000
G1 X125.203 Y108.680 F7800.000
G1 Z0.350 F7800.000
G1 E2.00000 F2400.00000
G1 X124.335 Y108.582 E2.07947 F1800.000
G1 X123.481 Y108.397 E2.15894
G1 X122.649 Y108.126 E2.23842
G1 X121.849 Y107.774 E2.31789
G1 X121.089 Y107.344 E2.39736
G1 X120.375 Y106.839 E2.47683
G1 X119.734 Y106.281 E2.55409
G1 X119.406 Y105.951 E2.59642
G1 X118.844 Y105.288 E2.67553
G1 X118.348 Y104.568 E2.75500
G1 X117.927 Y103.802 E2.83447
G1 X117.585 Y102.998 E2.91394
G1 X117.325 Y102.163 E2.99341
G1 X117.150 Y101.307 E3.07289
G1 X117.063 Y100.437 E3.15236
G1 X117.063 Y99.563 E3.23183
G1 X117.150 Y98.694 E3.31130
G1 X117.325 Y97.837 E3.39078
G1 X117.585 Y97.003 E3.47025
G1 X117.927 Y96.198 E3.54972
G1 X118.348 Y95.432 E3.62920
G1 X118.844 Y94.713 E3.70867
G1 X119.409 Y94.046 E3.78814
G1 X120.039 Y93.440 E3.86761
G1 X120.726 Y92.900 E3.94709
G1 X121.464 Y92.432 E4.02656
G1 X122.245 Y92.040 E4.10603
G1 X123.062 Y91.728 E4.18550
G1 X123.905 Y91.500 E4.26497
G1 X124.768 Y91.358 E4.34443
G1 X125.616 Y91.304 E4.42170 F1800.000
G1 X126.081 Y91.309 E4.46403
G1 X126.948 Y91.386 E4.54314
G1 X127.806 Y91.549 E4.62261
G1 X128.644 Y91.798 E4.70208
G1 X129.452 Y92.130 E4.78155
G1 X130.224 Y92.542 E4.86103
G1 X130.950 Y93.028 E4.94050
G1 X131.623 Y93.586 E5.01997
G1 X132.237 Y94.207 E5.09944
G1 X132.786 Y94.888 E5.17892
G1 X133.263 Y95.620 E5.25839
G1 X133.665 Y96.396 E5.33786
G1 X133.987 Y97.209 E5.41733
G1 X134.225 Y98.050 E5.49681
G1 X134.378 Y98.910 E5.57628
G1 X134.444 Y99.782 E5.65575
G1 X134.422 Y100.655 E5.73522
G1 X134.312 Y101.522 E5.81469
G1 X134.117 Y102.374 E5.89416
G1 X133.844 Y103.179 E5.97142
G1 X133.663 Y103.608 E6.01375
G1 X133.263 Y104.380 E6.09286
G1 X132.786 Y105.112 E6.17233
G1 X132.237 Y105.793 E6.25180
G1 X131.623 Y106.415 E6.33128
G1 X130.950 Y106.972 E6.41074
G1 X130.224 Y107.458 E6.49022
G1 X129.452 Y107.870 E6.56969
G1 X128.644 Y108.202 E6.64917
G1 X127.806 Y108.451 E6.72864
G1 X126.948 Y108.615 E6.80811
G1 X126.077 Y108.691 E6.88758
G1 X125.278 Y108.681 E6.96023
G1 X124.920 Y109.092 F7800.000
G1 E4.96023 F2400.00000
G92 E0
G1 Z0.450 F7800.000
G1 X122.060 Y89.014 F7800.000
G1 Z0.350 F7800.000
G1 E2.00000 F2400.00000
G1 X121.498 Y89.078 E2.05143 F1800.000
G1 X121.040 Y89.050 E2.09311
G1 X120.491 Y88.916 E2.14455
G1 X119.968 Y88.670 E2.19711
G1 X119.504 Y88.324 E2.24966
G1 X119.119 Y87.893 E2.30222
G1 X118.828 Y87.393 E2.35479
G1 X118.643 Y86.846 E2.40735
G1 X118.570 Y86.272 E2.45992
G1 X118.614 Y85.696 E2.51247
G1 X118.772 Y85.140 E2.56504
G1 X119.037 Y84.627 E2.61760
G1 X119.400 Y84.177 E2.67016
G1 X119.845 Y83.808 E2.72272
G1 X120.356 Y83.536 E2.77528
G1 X120.909 Y83.372 E2.82778
G1 X121.464 Y83.322 E2.87842 F1800.000
G1 X121.928 Y83.361 E2.92082
G1 X122.476 Y83.509 E2.97238
G1 X122.992 Y83.769 E3.02495
G1 X123.447 Y84.126 E3.07750
G1 X123.821 Y84.566 E3.13007
G1 X124.099 Y85.073 E3.18263
G1 X124.271 Y85.625 E3.23519
G1 X124.329 Y86.200 E3.28775
G1 X124.271 Y86.775 E3.34031
G1 X124.099 Y87.327 E3.39287
G1 X123.821 Y87.834 E3.44543
G1 X123.447 Y88.274 E3.49800
G1 X123.002 Y88.624 E3.54942
G1 X122.598 Y88.840 E3.59110
G1 X122.131 Y88.991 E3.63571
G1 X121.927 Y88.401 F7800.000
G1 X121.482 Y88.451 E3.67641 F1800.000
G1 X121.135 Y88.429 E3.70805
G1 X120.700 Y88.324 E3.74875
G1 X120.291 Y88.131 E3.78984
G1 X119.929 Y87.861 E3.83094
G1 X119.628 Y87.524 E3.87204
G1 X119.400 Y87.133 E3.91314
G1 X119.255 Y86.705 E3.95424
G1 X119.198 Y86.257 E3.99534
G1 X119.232 Y85.806 E4.03643
G1 X119.356 Y85.371 E4.07753
G1 X119.563 Y84.970 E4.11863
G1 X119.847 Y84.618 E4.15973
G1 X120.195 Y84.330 E4.20083
G1 X120.594 Y84.117 E4.24193
G1 X121.027 Y83.988 E4.28301
G1 X121.465 Y83.949 E4.32298 F1800.000
G1 X121.819 Y83.979 E4.35532
G1 X122.252 Y84.096 E4.39606
G1 X122.656 Y84.299 E4.43716
G1 X123.011 Y84.578 E4.47825
G1 X123.304 Y84.923 E4.51935
G1 X123.521 Y85.319 E4.56045
G1 X123.656 Y85.750 E4.60155
G1 X123.701 Y86.200 E4.64265
G1 X123.656 Y86.650 E4.68374
G1 X123.521 Y87.081 E4.72484
G1 X123.304 Y87.477 E4.76594
G1 X123.011 Y87.822 E4.80704
G1 X122.659 Y88.099 E4.84773
G1 X122.352 Y88.262 E4.87938
G1 X121.998 Y88.377 E4.91325
G1 X121.776 Y88.822 F7800.000
G1 X119.677 Y90.605 F7800.000
G1 X119.280 Y90.857 E4.95602 F1800.000
G1 X118.395 Y91.552 E5.05835
G1 X118.044 Y91.890 E5.10266
G1 X118.044 Y89.574 E5.31330
G1 X118.998 Y90.285 E5.42152
G1 X119.610 Y90.573 E5.48294
G1 X121.324 Y90.405 F7800.000
G1 X120.539 Y90.798 E5.56276 F1800.000
G1 X119.642 Y91.368 E5.65938
G1 X118.806 Y92.024 E5.75600
G1 X118.041 Y92.761 E5.85263
G1 X117.420 Y93.493 E5.93993
G1 X117.420 Y88.009 E6.43866
G1 X117.697 Y87.934 E6.46476
G1 X118.103 Y88.631 E6.53817
G1 X118.656 Y89.250 E6.61366
G1 X119.322 Y89.747 E6.68914
G1 X120.073 Y90.100 E6.76461
G1 X121.251 Y90.387 E6.87486
G1 X117.706 Y84.480 F7800.000
G1 X117.419 Y84.411 E6.90165 F1800.000
G1 X117.419 Y83.675 E6.96852
G1 X118.122 Y83.675 E7.03243
G1 X117.740 Y84.414 E7.10804
G1 X116.795 Y83.051 F7800.000
G1 X119.781 Y83.050 E7.37960 F1800.000
G1 X118.953 Y83.735 E7.47730
G1 X118.511 Y84.283 E7.54132
G1 X118.188 Y84.909 E7.60534
G1 X117.995 Y85.586 E7.66938
G1 X117.942 Y86.288 E7.73339
G1 X118.031 Y86.987 E7.79742
G1 X118.257 Y87.654 E7.86145
G1 X118.611 Y88.262 E7.92547
G1 X119.080 Y88.787 E7.98950
G1 X119.645 Y89.208 E8.05352
G1 X120.282 Y89.508 E8.11753
G1 X120.946 Y89.670 E8.17972
G1 X121.514 Y89.705 E8.23142
G1 X122.193 Y89.628 E8.29360
G1 X122.843 Y89.417 E8.35577
G1 X123.345 Y89.149 E8.40747
G1 X123.882 Y88.727 E8.46964
G1 X124.599 Y87.882 E8.57039
G1 X124.599 Y90.119 E8.77382
G1 X123.640 Y90.277 E8.86224
G1 X122.675 Y90.538 E8.95315
G1 X121.741 Y90.894 E9.04405
G1 X120.847 Y91.343 E9.13496
G1 X120.003 Y91.878 E9.22587
G1 X119.217 Y92.496 E9.31677
G1 X118.497 Y93.190 E9.40768
G1 X117.850 Y93.952 E9.49859
G1 X117.283 Y94.775 E9.58949
G1 X117.076 Y95.151 E9.62848
G1 X116.795 Y95.079 E9.65492
G1 X116.795 Y83.126 E10.74181
G1 X116.170 Y82.426 F7800.000
G1 X121.478 Y82.425 E11.22452 F1800.000
G1 X121.863 Y82.450 E11.25956
G1 X122.433 Y82.558 E11.31235
G1 X122.969 Y82.747 E11.36403
G1 X123.471 Y83.015 E11.41570
G1 X123.936 Y83.362 E11.46850
G1 X124.200 Y83.617 E11.50187
G1 X124.438 Y83.896 E11.53524
G1 X124.755 Y84.383 E11.58803
G1 X124.990 Y84.900 E11.63970
G1 X125.149 Y85.459 E11.69250
G1 X125.204 Y85.821 E11.72587
G1 X125.224 Y86.225 E11.76258
G1 X125.224 Y90.703 E12.16980
G1 X124.697 Y90.737 E12.21788
G1 X123.773 Y90.889 E12.30304
G1 X122.868 Y91.133 E12.38822
G1 X121.993 Y91.467 E12.47341
G1 X121.155 Y91.887 E12.55861
G1 X120.364 Y92.389 E12.64379
G1 X119.628 Y92.968 E12.72898
G1 X118.953 Y93.618 E12.81417
G1 X118.347 Y94.332 E12.89936
G1 X117.815 Y95.104 E12.98455
G1 X117.364 Y95.925 E13.06974
G1 X116.997 Y96.787 E13.15493
G1 X116.719 Y97.681 E13.24012
G1 X116.507 Y98.721 E13.33660
G1 X116.170 Y98.687 E13.36742
G1 X116.170 Y82.501 E14.83925
G1 E12.83925 F2400.00000
G92 E0
G1 Z0.450 F7800.000
G1 X120.909 Y110.972 F7800.000
G1 Z0.350 F7800.000
G1 E2.00000 F2400.00000
G1 X121.464 Y110.922 E2.05064 F1800.000
G1 X121.928 Y110.961 E2.09304
G1 X122.476 Y111.109 E2.14460
G1 X122.992 Y111.369 E2.19717
G1 X123.447 Y111.726 E2.24972
G1 X123.821 Y112.166 E2.30229
G1 X124.099 Y112.673 E2.35485
G1 X124.271 Y113.225 E2.40741
G1 X124.329 Y113.800 E2.45997
G1 X124.271 Y114.375 E2.51254
G1 X124.099 Y114.927 E2.56509
G1 X123.821 Y115.434 E2.61765
G1 X123.447 Y115.874 E2.67022
G1 X123.002 Y116.224 E2.72164
G1 X122.598 Y116.440 E2.76332
G1 X122.060 Y116.614 E2.81475
G1 X121.498 Y116.678 E2.86619
G1 X121.040 Y116.650 E2.90786
G1 X120.491 Y116.516 E2.95931
G1 X119.968 Y116.270 E3.01186
G1 X119.504 Y115.924 E3.06442
G1 X119.119 Y115.493 E3.11698
G1 X118.828 Y114.993 E3.16954
G1 X118.643 Y114.446 E3.22211
G1 X118.570 Y113.872 E3.27467
G1 X118.614 Y113.296 E3.32722
G1 X118.772 Y112.740 E3.37979
G1 X119.037 Y112.227 E3.43235
G1 X119.394 Y111.784 E3.48404
G1 X119.783 Y111.449 E3.53074
G1 X120.350 Y111.138 E3.58949
G1 X120.837 Y110.993 E3.63573
G1 X121.027 Y111.588 F7800.000
G1 X121.465 Y111.549 E3.67571 F1800.000
G1 X121.819 Y111.579 E3.70804
G1 X122.252 Y111.696 E3.74879
G1 X122.656 Y111.899 E3.78989
G1 X123.011 Y112.178 E3.83098
G1 X123.304 Y112.523 E3.87208
G1 X123.521 Y112.919 E3.91318
G1 X123.656 Y113.350 E3.95428
G1 X123.701 Y113.800 E3.99537
G1 X123.656 Y114.250 E4.03648
G1 X123.521 Y114.681 E4.07757
G1 X123.304 Y115.077 E4.11867
G1 X123.011 Y115.422 E4.15977
G1 X122.659 Y115.699 E4.20046
G1 X122.352 Y115.862 E4.23211
G1 X121.927 Y116.001 E4.27280
G1 X121.482 Y116.051 E4.31349
G1 X121.135 Y116.029 E4.34514
G1 X120.700 Y115.924 E4.38584
G1 X120.291 Y115.731 E4.42693
G1 X119.929 Y115.461 E4.46803
G1 X119.628 Y115.124 E4.50913
G1 X119.400 Y114.733 E4.55023
G1 X119.255 Y114.305 E4.59133
G1 X119.198 Y113.857 E4.63243
G1 X119.232 Y113.406 E4.67352
G1 X119.356 Y112.971 E4.71462
G1 X119.563 Y112.570 E4.75572
G1 X119.845 Y112.221 E4.79650
G1 X120.142 Y111.965 E4.83210
G1 X120.592 Y111.718 E4.87883
G1 X120.955 Y111.610 E4.91329
G1 X121.185 Y111.178 F7800.000
G1 E2.91329 F2400.00000
G92 E0
G1 Z0.450 F7800.000
G1 X117.420 Y115.609 F7800.000
G1 Z0.350 F7800.000
G1 E2.00000 F2400.00000
G1 X117.697 Y115.534 E2.02610 F1800.000
G1 X118.158 Y116.325 E2.10937
G1 X117.420 Y116.325 E2.17651
G1 X117.420 Y115.684 E2.23481
G1 X118.044 Y110.472 F7800.000
G1 X118.044 Y108.124 E2.44832 F1800.000
G1 X118.830 Y108.807 E2.54295
G1 X119.647 Y109.385 E2.63393
G1 X118.709 Y109.900 E2.73123
G1 X118.101 Y110.423 E2.80413
G1 X117.706 Y112.080 F7800.000
G1 X117.420 Y112.011 E2.83091 F1800.000
G1 X117.420 Y106.507 E3.33137
G1 X118.024 Y107.219 E3.41635
G1 X118.452 Y107.651 E3.47160
G1 X119.216 Y108.315 E3.56367
G1 X120.083 Y108.928 E3.66023
G1 X120.995 Y109.445 E3.75549
G1 X120.936 Y109.714 E3.78057
G1 X120.673 Y109.738 E3.80465
G1 X119.865 Y109.978 E3.88127
G1 X119.067 Y110.417 E3.96407
G1 X118.493 Y110.911 E4.03299
G1 X117.985 Y111.540 E4.10647
G1 X117.740 Y112.014 E4.15496
G1 X116.795 Y116.950 F7800.000
G1 X116.795 Y104.922 E5.24867 F1800.000
G1 X117.076 Y104.849 E5.27511
G1 X117.283 Y105.225 E5.31410
G1 X117.850 Y106.048 E5.40500
G1 X118.485 Y106.797 E5.49424
G1 X118.879 Y107.194 E5.54518
G1 X119.603 Y107.823 E5.63231
G1 X120.418 Y108.400 E5.72318
G1 X121.288 Y108.893 E5.81408
G1 X122.203 Y109.296 E5.90499
G1 X123.154 Y109.605 E5.99590
G1 X124.131 Y109.816 E6.08680
G1 X124.599 Y109.870 E6.12964
G1 X124.596 Y112.114 E6.33374
G1 X123.882 Y111.273 E6.43403
G1 X123.329 Y110.838 E6.49805
G1 X122.700 Y110.523 E6.56207
G1 X122.037 Y110.344 E6.62445
G1 X121.462 Y110.294 E6.67692
G1 X120.791 Y110.355 E6.73823
G1 X120.107 Y110.558 E6.80306
G1 X119.425 Y110.933 E6.87384
G1 X118.943 Y111.348 E6.93165
G1 X118.511 Y111.883 E6.99424
G1 X118.188 Y112.509 E7.05826
G1 X117.995 Y113.186 E7.12230
G1 X117.942 Y113.888 E7.18631
G1 X118.031 Y114.587 E7.25034
G1 X118.257 Y115.254 E7.31437
G1 X118.611 Y115.862 E7.37839
G1 X119.080 Y116.387 E7.44242
G1 X119.490 Y116.693 E7.48892
G1 X119.405 Y116.950 E7.51353
G1 X116.870 Y116.950 E7.74406
G1 X116.170 Y117.575 F7800.000
G1 X116.170 Y101.313 E9.22271 F1800.000
G1 X116.507 Y101.279 E9.25354
G1 X116.719 Y102.319 E9.35002
G1 X116.997 Y103.213 E9.43520
G1 X117.364 Y104.075 E9.52039
G1 X117.815 Y104.896 E9.60559
G1 X118.347 Y105.668 E9.69077
G1 X118.946 Y106.374 E9.77494
G1 X119.307 Y106.738 E9.82158
G1 X119.989 Y107.331 E9.90378
G1 X120.754 Y107.872 E9.98894
G1 X121.569 Y108.334 E10.07413
G1 X122.426 Y108.711 E10.15932
G1 X123.317 Y109.001 E10.24452
G1 X124.233 Y109.199 E10.32970
G1 X125.225 Y109.312 E10.42048
G1 X125.218 Y113.989 E10.84578
G1 X125.180 Y114.367 E10.88033
G1 X125.107 Y114.727 E10.91369
G1 X124.917 Y115.288 E10.96760
G1 X124.762 Y115.607 E10.99986
G1 X124.438 Y116.104 E11.05377
G1 X124.201 Y116.383 E11.08702
G1 X123.925 Y116.648 E11.12185
G1 X123.461 Y116.992 E11.17436
G1 X123.141 Y117.173 E11.20778
G1 X122.806 Y117.321 E11.24115
G1 X122.237 Y117.490 E11.29507
G1 X121.875 Y117.550 E11.32843
G1 X121.478 Y117.575 E11.36458
G1 X116.245 Y117.575 E11.84047
G1 E9.84047 F2400.00000
G92 E0
G1 Z0.450 F7800.000
G1 X125.850 Y109.420 F7800.000
G1 Z0.350 F7800.000
G1 E2.00000 F2400.00000
G1 X125.843 Y114.021 E2.41833 F1800.000
G1 X125.799 Y114.461 E2.45856
G1 X125.711 Y114.890 E2.49835
G1 X125.496 Y115.526 E2.55942
G1 X125.307 Y115.916 E2.59881
G1 X124.940 Y116.478 E2.65988
G1 X124.657 Y116.811 E2.69964
G1 X124.329 Y117.126 E2.74093
G1 X123.803 Y117.517 E2.80052
G1 X123.422 Y117.733 E2.84034
G1 X123.021 Y117.909 E2.88014
G1 X122.378 Y118.100 E2.94121
G1 X121.946 Y118.172 E2.98100
G1 X121.498 Y118.200 E3.02180
G1 X115.545 Y118.199 E3.56312
G1 X115.545 Y81.801 E6.87283
G1 X121.498 Y81.800 E7.41415
G1 X121.941 Y81.828 E7.45455
G1 X122.597 Y81.953 E7.51521
G1 X123.222 Y82.174 E7.57547
G1 X123.806 Y82.486 E7.63573
G1 X124.341 Y82.885 E7.69640
G1 X124.656 Y83.188 E7.73620
G1 X124.940 Y83.522 E7.77600
G1 X125.304 Y84.081 E7.83666
G1 X125.579 Y84.684 E7.89692
G1 X125.761 Y85.326 E7.95758
G1 X125.827 Y85.759 E7.99738
G1 X125.849 Y86.209 E8.03838
G1 X125.849 Y90.580 E8.43583
G1 X127.044 Y90.688 E8.54494
G1 X127.974 Y90.865 E8.63100
G1 X128.679 Y91.069 E8.69770
G1 X129.318 Y91.302 E8.75960
G1 X130.176 Y91.706 E8.84578
G1 X130.807 Y92.078 E8.91247
G1 X131.369 Y92.463 E8.97437
G1 X132.099 Y93.066 E9.06044
